X:1
T:Title
%%score { ( 1 4 5 ) | ( 2 3 ) }
L:1/8
M:4/4
K:Bb
V:1 treble nm="Grand Piano"
V:4 treble 
V:5 treble 
V:2 bass 
V:3 bass 
V:1
 z8[Q:1/4=100] | [Fd]2 [Fd]c [DB]2 [FA]G |[M:7/8] [EG]3 z [DF]2 z |[M:1/8] F | %4
[M:4/4] z2 z E z2 z D |[M:7/8] [B,D]-[B,D]-[B,D]- [B,D]3 z |[M:1/4] z2 | %7
[M:4/4] [Fd]2 [Fd]c [DB]2 [FA]G |[M:7/8] [EG]3 z [DF]2 z |[M:1/8] z |[M:4/4] [CEA]3 A G2 F2 | %11
 [DFB]6 z2 | [DF]F F>F F2 EF | [EG] G2 G G2 z2 | [DF]FGG [GB]3 [GB] | [Ac]6 z2 | %16
 [Bd][Bd][Bd][Ac] B2 G2 | GGGG [B,GB]2 z B | d3 d d3 c | [DB]4 z4 | [DF][DF] [DF]>[DF] [DF]2 z2 | %21
 GG G>G G2 z2 | FFFF G2 A2 | [DB]4 z4 | [DF][DF] [DF]>[DF] [DF]2 z2 | GG G>G G2 z2 | FFFF G2 A2 | %27
 [DB]4 z4 |] %28
V:2
 z4 z2 F2 | z2 [B,D]2 z2 [B,D]2 |[M:7/8] B,,2 B, D B,,3 |[M:1/8] D |[M:4/4] z2 F,2 z2 F,2 | %5
[M:7/8] z F,D, F, B,,2 z |[M:1/4] F2 |[M:4/4] z2 [B,D]2 z2 [B,D]2 |[M:7/8] B,,2 B, D B,,3 | %9
[M:1/8] F |[M:4/4] z2 z [CE] [CE]2 [A,C]2 | [B,,B,]6 z2 | z[K:treble] D D>D D2 C[K:bass]D | %13
 z E2 E E2 z2 | z DEE [G,,G,]4 | [F,,F,]6 z2 | [B,,B,] .[B,,B,]3 G2 [E,B,E]2 | %17
 [B,E][B,E][E,B,E][E,B,E] E,2 z[K:treble] G | [F,B,F]3[K:bass] [F,B,F] [F,A,F]3 [F,A,E] | %19
 [B,,B,]4 z4 | [B,,B,][B,,B,] [B,,B,]>[B,,B,] [B,,B,]2 z2 | %21
 [E,B,E][E,B,E] [E,B,E]>[E,B,E] [E,B,E]2 z2 | [F,A,E][F,A,E][F,A,E][F,A,E] [F,B,E]2 [F,CE]2 | %23
 [B,,B,]4 z4 | [B,,B,][B,,B,] [B,,B,]>[B,,B,] [B,,B,]2 z2 | %25
 [E,B,E][E,B,E] [E,B,E]>[E,B,E] [E,B,E]2 z2 | [F,A,E][F,A,E][F,A,E][F,A,E] [F,B,E]2 [F,CE]2 | %27
 [B,,B,]4 z4 |] %28
V:3
 x8 | B,,2 z E B,,2 z E |[M:7/8] x7 |[M:1/8] x |[M:4/4] F,,2 z C F,,2 z B, | %5
[M:7/8] B,,- B,,3 z z2 |[M:1/4] x2 |[M:4/4] B,,2 z E B,,2 z E |[M:7/8] x7 |[M:1/8] x | %10
[M:4/4] [F,,F,]8 | x8 | [B,,B,]6[K:treble] z2[K:bass] | [E,,E,]6 z2 | [B,,B,]4 z4 | x8 | %16
 z2 z [B,,B,]- [B,,B,] z z2 | z4 z2 E,2[K:treble] | x3[K:bass] x5 | x8 | x8 | x8 | x8 | x8 | x8 | %25
 x8 | x8 | x8 |] %28
V:4
 x8 | x8 |[M:7/8] z2 D F B,3 |[M:1/8] x |[M:4/4] [DF]4 [CE]4 |[M:7/8] x7 |[M:1/4] x2 |[M:4/4] x8 | %8
[M:7/8] z2 D F B,3 |[M:1/8] x |[M:4/4] x8 | x8 | x8 | x8 | x8 | x8 | x8 | z4 z2 B,2 | x8 | x8 | %20
 x8 | x8 | x8 | x8 | x8 | x8 | x8 | x8 |] %28
V:5
 x8 | x8 |[M:7/8] x7 |[M:1/8] x |[M:4/4] z2 A,2 z2 A,2 |[M:7/8] x7 |[M:1/4] x2 |[M:4/4] x8 | %8
[M:7/8] x7 |[M:1/8] x |[M:4/4] x8 | x8 | x8 | x8 | x8 | x8 | x8 | x8 | x8 | x8 | x8 | x8 | x8 | %23
 x8 | x8 | x8 | x8 | x8 |] %28

